X:1
T:ຕຶກຕັກ
T:ເນື້ອຮ້ອງ & ທຳນອງ : ພົມມາ ສົມສຸທິ ນັກຮ້ອງຕົ້ນສະບັບ : ຈັນທະຣາ ອຸເທນສັກດາ
T:<1966 ຫຼັງຈາກນໍ້າຖ້ວມວຽງຈັນປິ 1966
T:© studiodavong
T:© studiodavong
C:Phomma SOMSOUTHI
Z:© studiodavong
L:1/8
Q:1/4=126
M:4/4
K:Ab
V:1 treble nm="Piano" snm="Pno."
V:1
"^Lamvong LAO" z4"_(Intro) ____________________________________________________________________________________" z2 A2 || %1
w: |
w: |
"Ab" A3 B c2 eB- |"Bbm" B2 z c B2 AF- |"Db" FAFC E2 FA ||"Ab""_(ສອຍ)" z2 .A.A .A z A2 |: A6 A2 | %6
w: |||* * * ຕຶກ|ຕັກ ຕຶກ|
w: |||||
 A3 B c2 eA- | AA(FA) E3 F | A6 (ce) |"Fm" c2 AB (ce)AB |"Ab" c6 (ce) |"Fm" c2 AB (ce)AB | %12
w: ຕັກ ມີ ໃຜ ຮູ້ ຈັກ-|* ວ່າ ສຽງ- * ຈາກ ອີ່|ຫຍັງ ສົນ- *|ໃຈ ກະ ເອົາ ຫູ- * ເຂົ້າ ມາ|ຟັງ ສົນ- *|ໃຈ ກະ ເອົາ ຫູ- * ເຂົ້າ ມາ|
w: ||||||
"Ab" c3 e c2 BA- |"Db" A F2 B A3 A |"Ab"{F} A2 z2"_ຄໍ່າ\nວ່າ\n" z2{A} E2!dacoda! ||1 %15
w: ຟັງ ສຽງ ນີ້ ມັນ ດັງ-|* ເກືອບ ຫົວ ໃຈ ຊິ|ຫັກ... ຢູ່|
w: |||
"Ab""^A" A4 E2 F2 | A3 F (AE)(AF) | A2 AC E2 (EC) |"Fm" F6 A2 | F2 F2 (AE) F2 |"Ab" A3 A F2 A2 | %21
w: ດຽວ ປ່ຽວ ເອ|ກາ ໄປ ທຽວ- * ຊອກ- *|ຫາ ຜູ່ ຊິ ມາ ຮ່ວມ- *|ຮັກ ເມື່ອ|ສອງ ສາມ ມື້- * ຜ່ານ|ມາ ອ້າຍ ເຫັນ ແກ້ວ|
w: ||||||
"Fm" F3 E F2 E2 |"Cm" C8 |"Fm"{/e} f8 |"Ab"{/c} e6{c} e2 | c3 B c2 e2 |"Eb" z2 e2 B2 e2 | %27
w: ຕາ ຢູ່ ທ່າ ເຮືອ|ບັກ|ໂທ!້|ສວຍ... ສວຍ|ງາມ ບາດ ໃຈ ແທ້|ນ້ອງ ບໍ່ ຫຼຽວ|
w: ||||||
 c B2 e c2{/F} A2 |"Ab"{/F} A2 z2 z2 A2 :|2"Ab""^B" A4{A} E2 F2 |{/F} A4 A2 (AF) |{F} A2 AC E2 E2 | %32
w: ແລ ອ້າຍ ກໍ ຄົງ ອົກ|ຫັກ... ຕຶກ|ຄືນ ຂ້ອຍ ນອນ|ໜາວ ຄຶດ ເຖິງ- *|ສາວ ໂລດ ບໍ່ ມີ ຍາມ|
w: |||||
"Fm" F6 E2 |"Ab" E3 F (AE) F2 | A3 F A2 E2 |"Fm" F2 EA F2 E2 |"Cm" C8 |"Fm"{/e} f8 | %38
w: ພັກ ເອິກ|ບ່າວ ມັນ ເສົ້າ- * ອີ່|ຫຼີ ກໍ ເພາະ ບໍ່|ມີ ຜູ່ ໃຫ້ ນອນ ໝູນ|ຕັກ|ໂອ້ຍ!|
w: ||||||
"Ab"{/c} e6{c} e2 |{e} B3 B{/e} c2 e2 |"Eb" z2 e2 B2 c2 | e c2{/c} e F2{/B} A2 | %42
w: ໜາວ... ເຫັນ|ເຈົ້າ ແຕ່ ມື້ ນັ້ນ|ອ້າຍ ເກັບ ໄປ|ຝັນ ຈົນ ໜາວ ສັ່ນ ງັກ|
w: ||||
"Ab"{/B} A2 z2 z2 A2 :|3,4OS"Ab""^C" A4 E2 F2 | A3 E (FA) E2 | CE E2 E2 F2 |"Fm" F6{/A} B2 | %47
w: ໆ... ຕຶກ|ຮັກ ຄື ຢາ|ພິດ ແຕ່ ອ້າຍ- * ພໍ-|ຈິດ ຈະ ລອງ ຊີມ ພິດ|ຮັກ ຂໍ|
w: |||||
"Ab" A3 F (AE) F2 | A2 FA C2 E2 |"Fm" F2 FE F2 E2 |"Cm" C8 |"Fm"{/e} f8 |"Ab"{/c} e6 e2 | %53
w: ພຽງ ໄດ້ ແນບ- * ເອິກ|ສາວ ຊີ ວິດ ບໍ່ ຍືນ|ຍາວ ອ້າຍ ກໍ ຂໍ ສ|ມັກ|ໄດ້|ຫອມ... ໄດ້|
w: ||||||
 c3 B c2 e2 |"Eb" z2 c2 B2 e2 | c B2 A F2{/A} F2 |"Ab" A2 z2 z2 A2 :|"^D" A6 A2 | A3 B c2 eA- | %59
w: ອີງ ໄດ້ ພີງ ຂວັນ|ຕາຍ ກະ ຊ່າງ|ມັນ ເພາະ ວ່າ ໃຈ ອ້າຍ|ມັກ ຕຶກ|ຕັກ ຕຶກ|ຕັກ ມີ ໃຜ ຮູ້ ຈັກ-|
w: ||||||
 AA(FA) E3 F | A6 (ce) |"Fm" c2 AB (ce)AB |"Ab" c6 (ce) ||"Fm" c2 AB (ce)AB |"Ab" c3 e c2 BA- || %65
w: * ວ່າ ສຽງ- * ຈາກ ອີ່|ຫຍັງ ສົນ- *|ໃຈ ກະ ເອົາ ຫູ- * ເຂົ້າ ມາ|ຟັງ ສົນ- *|ໃຈ ກະ ເອົາ ຫູ- * ເຂົ້າ ມາ|ຟັງ ສຽງ ນີ້ ມັນ ດັງ-|
w: ||||ໃຈ ກະ ຈິ ເວົ້າ- * ໃຫ້ ເຈົ້າ|ຟັງ ຮັກ ເຈົ້າ ຈິງ ຈັງ-|
"Db" A F2 B A3{F} A |"Ab"{F} A2 z2 z2 A2!D.S.! ||"Ab""^E" A6 A2 | A6 A2 | A6 A2 | A6 z2!fine! |] %71
w: * ເກືອບ ຫົວ ໃຈ ຊິ|ຫັກ... ວ່າ|ຕັກ! ຕຶກ|ຕັກ! ຕຶກ|ຕັກ! ຕຶກ|ຕັກ!|
w: * ຈັ່ງ ສຽງ ດັງ ຕຶກ|ຕັກ... ຕຶກ|||||

